Adwaita++-Dark/actions/22/merge.svg

<svg height="22" viewBox="0 0 22 22" width="22" xmlns="http://www.w3.org/2000/svg">
  <path d="m1 1a1.0001 1.0001 0 0 0 -1 1v4a1.0001 1.0001 0 0 0 1 1h5v2h-5a1.0001 1.0001 0 0 0 -1 1v4a1.0001 1.0001 0 0 0 1 1h7a1.0001 1.0001 0 0 0 1-1v-3h5a1.0001 1.0001 0 0 0 1-1v-4a1.0001 1.0001 0 0 0 -1-1h-5v-3a1.0001 1.0001 0 0 0 -1-1z" fill="#e6ddff" transform="translate(3 3)"/>
</svg>

<svg xmlns="http://www.w3.org/2000/svg" width="22" height="22" viewBox="0 0 22 22">
 <defs>
  <style id="current-color-scheme" type="text/css">
   .ColorScheme-Text { color:#E6DDFF; } .ColorScheme-Highlight { color:#4285f4; }
  </style>
 </defs>
 <path style="fill:currentColor" class="ColorScheme-Text" d="M 1 1 A 1.0001 1.0001 0 0 0 0 2 L 0 6 A 1.0001 1.0001 0 0 0 1 7 L 6 7 L 6 9 L 1 9 A 1.0001 1.0001 0 0 0 0 10 L 0 14 A 1.0001 1.0001 0 0 0 1 15 L 8 15 A 1.0001 1.0001 0 0 0 9 14 L 9 11 L 14 11 A 1.0001 1.0001 0 0 0 15 10 L 15 6 A 1.0001 1.0001 0 0 0 14 5 L 9 5 L 9 2 A 1.0001 1.0001 0 0 0 8 1 L 1 1 z" transform="translate(3 3)"/>
</svg>
